build/img/icon/location.svg

<svg width="40" height="40" viewBox="0 0 40 40" fill="none" xmlns="http://www.w3.org/2000/svg">
<circle cx="20" cy="20" r="19.5" stroke="#BEC2C3"/>
<path d="M19.5221 13C16.4774 13 14 15.4774 14 18.5225C14 19.3167 14.1626 20.0751 14.4829 20.7766C15.8636 23.7979 18.5108 26.9877 19.2894 27.8933C19.3478 27.961 19.4328 28 19.5223 28C19.6118 28 19.6968 27.961 19.7552 27.8933C20.5335 26.9879 23.1807 23.7982 24.5618 20.7766C24.8823 20.0751 25.0448 19.3167 25.0448 18.5225C25.0444 15.4774 22.5671 13 19.5221 13ZM19.5221 21.3908C17.9405 21.3908 16.6536 20.1039 16.6536 18.5223C16.6536 16.9405 17.9405 15.6536 19.5221 15.6536C21.1038 15.6536 22.3907 16.9405 22.3907 18.5223C22.3908 20.1039 21.1039 21.3908 19.5221 21.3908Z" fill="#8D9293"/>
</svg>

<svg width="40" height="40" fill="none" xmlns="http://www.w3.org/2000/svg"><circle cx="20" cy="20" r="19.5" stroke="#BEC2C3"/><path d="M19.522 13A5.529 5.529 0 0014 18.523c0 .794.163 1.552.483 2.254 1.38 3.02 4.028 6.21 4.806 7.116a.308.308 0 00.466 0c.779-.905 3.426-4.095 4.807-7.116.32-.702.483-1.46.483-2.255A5.53 5.53 0 0019.522 13zm0 8.39a2.872 2.872 0 01-2.868-2.868 2.872 2.872 0 012.868-2.868 2.872 2.872 0 012.869 2.868 2.872 2.872 0 01-2.869 2.869z" fill="#8D9293"/></svg>
